X:1616
T:Valbopolska
R:Polska
S:Efter Skoglund
O:Gästrikland
M:3/4
L:1/16
K:D
|: d2AF D2FA d3d|f3d d2cde4|e2AA A2A2 A2A2|g3e e2dcd4:|
|:f2df a4g4|fef2 aef2 g4|g3b e3g f3e|a2z2 (3B2c2d2 c2A2|
f2df a4g4|fef2 aef2 g4|g3b e3g f3d|c2Bcd4z4:|
|:DEFG [DA]4 [DA]4|(3A2G2A2 (3d2A2G2 (3F2E2F2|DEFG [G,G]4 [G,G]4|(3G2F2G2 (3B2A2G2 (3F2E2F2|
DEFG [DA]4 [DA]4|(3A2G2A2 (3d2A2G2 (3F2E2F2|DEFG [G,G]4 [G,G]4|(3G2F2G2 (3B2A2G2 (3F2E2F2|
DEFG A2Bc d2ef|gfe2 dcB2A4|G3G F3F E3E|c2Bcd4z4:|
(:musicend:)
(:music:)
